src/assets/tabbar/icon-stores-active.svg

<?xml version="1.0" encoding="UTF-8" standalone="no"?>
<svg width="28px" height="28px" viewBox="0 0 28 28" version="1.1" xmlns="http://www.w3.org/2000/svg" xmlns:xlink="http://www.w3.org/1999/xlink">
    <!-- Generator: Sketch 43.2 (39069) - http://www.bohemiancoding.com/sketch -->
    <title>Rectangle 334</title>
    <desc>Created with Sketch.</desc>
    <defs>
        <rect id="path-1" x="0" y="0" width="28" height="28"></rect>
    </defs>
    <g id="Page-1" stroke="none" stroke-width="1" fill="none" fill-rule="evenodd">
        <g id="Group-2">
            <g id="Rectangle-334" opacity="0">
                <use fill="#D8D8D8" fill-rule="evenodd" xlink:href="#path-1"></use>
                <rect stroke="#979797" stroke-width="1" x="0.5" y="0.5" width="27" height="27"></rect>
            </g>
            <path d="M8.43462669,14.1357214 L5.86723704,14.1357214 C5.70302298,14.1357214 5.56970942,14.2776427 5.56970942,14.4515197 L5.56970942,17.0314783 C5.56970942,17.2062952 5.70302298,17.3482164 5.86723704,17.3482164 L8.43462669,17.3482164 C8.59884075,17.3482164 8.73215431,17.2062952 8.73215431,17.0314783 L8.73215431,14.4515197 C8.73215431,14.2776427 8.59884075,14.1357214 8.43462669,14.1357214 L8.43462669,14.1357214 Z M17.3604309,14.4233547 C17.3604309,13.7334763 16.8068722,13.1714228 16.1261805,13.1714228 L12.0226071,13.1714228 C11.3419154,13.1714228 10.7883567,13.7334763 10.7883567,14.4233547 L10.7883567,22.8475775 C10.7883567,23.0571727 10.9561018,23.2263527 11.1618101,23.2263527 C11.3684014,23.2263527 11.5352636,23.0571727 11.5352636,22.8475775 L11.5352636,14.4233547 C11.5352636,14.1507869 11.754215,13.9289732 12.0226071,13.9289732 L16.1261805,13.9289732 C16.3945726,13.9289732 16.613524,14.1507869 16.613524,14.4233547 L16.613524,22.8475775 C16.613524,23.0571727 16.7803862,23.2263527 16.9869774,23.2263527 C17.1935687,23.2263527 17.3604309,23.0571727 17.3604309,22.8475775 L17.3604309,14.4233547 Z M9.43844689,14.5445759 C9.43844689,13.965604 8.97405751,13.4947194 8.40195803,13.4947194 L5.8999057,13.4947194 C5.32780622,13.4947194 4.86341683,13.965604 4.86341683,14.5445759 L4.86341683,16.9394141 C4.86341683,17.5183859 5.32780622,17.9902104 5.8999057,17.9902104 L8.40195803,17.9902104 C8.97405751,17.9902104 9.43844689,17.5183859 9.43844689,16.9394141 L9.43844689,14.5445759 Z M24.8374649,5.73311302 L24.8374649,7.07057435 C24.8374649,7.47566628 24.5125691,7.80462726 24.1135123,7.80462726 L19.6594378,8.22193775 L19.6594378,23.6050927 C19.6594378,23.8146878 19.4916927,23.9838677 19.2851013,23.9838677 L3.29810819,23.9838677 C3.09151683,23.9838677 2.92465458,23.8146878 2.92465458,23.6050927 L2.92553744,9.67782502 L1.75043871,9.76335487 L1.74867297,9.76335487 C1.32313008,9.76335487 1,9.43533379 1,9.03118174 L1,7.69372041 C1,7.28862847 1.32489582,6.9596675 1.72395264,6.9596675 L24.0808461,5.00093989 C24.0914406,5 24.1029179,5 24.1135123,5 C24.5125691,5 24.8374649,5.32896097 24.8374649,5.73311302 L24.8374649,5.73311302 Z M24.4198397,10.4108216 C26.3945175,10.4108216 28,12.0170928 28,13.9927405 C28,15.9674483 26.3945175,17.5746593 24.4198397,17.5746593 C22.4461013,17.5746593 20.8396794,15.9674483 20.8396794,13.9927405 C20.8396794,12.0170928 22.4461013,10.4108216 24.4198397,10.4108216 L24.4198397,10.4108216 Z" id="Fill-1" fill="#00A862"></path>
        </g>
    </g>
</svg>

<svg width="28" height="28" xmlns="http://www.w3.org/2000/svg"><defs><path id="a" d="M0 0h28v28H0z"/></defs><path d="M8.435 14.136H5.867c-.164 0-.297.142-.297.316v2.58c0 .174.133.316.297.316h2.568c.164 0 .297-.142.297-.317v-2.58c0-.173-.133-.315-.297-.315zm8.925.287c0-.69-.553-1.252-1.234-1.252h-4.103c-.681 0-1.235.562-1.235 1.252v8.425c0 .21.168.378.374.378s.373-.169.373-.378v-8.425c0-.272.22-.494.488-.494h4.103c.269 0 .488.222.488.494v8.425c0 .21.166.378.373.378s.373-.169.373-.378v-8.425zm-7.922.122c0-.58-.464-1.05-1.036-1.05H5.9c-.572 0-1.037.47-1.037 1.05v2.394c0 .58.465 1.051 1.037 1.051h2.502c.572 0 1.036-.472 1.036-1.05v-2.395zm15.4-8.812v1.338a.73.73 0 01-.724.734l-4.455.417v15.383c0 .21-.167.379-.374.379H3.298a.376.376 0 01-.373-.379V9.678l-1.175.085H1.75A.733.733 0 011 9.031V7.694a.73.73 0 01.724-.734L24.081 5h.033c.399 0 .723.329.723.733zm-.418 4.678A3.584 3.584 0 0128 13.993a3.585 3.585 0 01-3.58 3.582 3.586 3.586 0 01-3.58-3.582 3.585 3.585 0 013.58-3.582z" fill="#00A862" fill-rule="evenodd"/></svg>
